dist/svgs/org-money.svg

<svg xmlns="http://www.w3.org/2000/svg" viewBox="0 0 512 512"><path d="M256 0q53 0 99.5 20T437 75t55 81.5 20 99.5-20 99.5-55 81.5-81.5 55-99.5 20-99.5-20T75 437t-55-81.5T0 256t20-99.5T75 75t81.5-55T256 0zm0 474q45 0 84.5-17t69.5-47 47-69.5 17-84.5-17-84.5-47-69.5-69.5-47T256 38t-84.5 17-69.5 47-47 69.5T38 256t17 84.5 47 69.5 69.5 47 84.5 17zm88-349q5-5 13.5-5t13.5 5q5 6 5 14t-5 13l-71 71h51q8 0 13.5 5.5T370 242t-5.5 14-13.5 6h-76v36h76q8 0 13.5 6t5.5 14-5.5 13.5T351 337h-76v58q0 8-5.5 13.5T256 414t-13.5-5.5T237 395v-58h-76q-8 0-13.5-5.5T142 318t5.5-14 13.5-6h76v-36h-76q-8 0-13.5-6t-5.5-14 5.5-13.5T161 223h51l-71-71q-5-5-5-13t5-14q6-5 14-5t13 5l88 88z"/></svg>

<?xml version="1.0" encoding="UTF-8" standalone="no"?><svg   xmlns:svg="http://www.w3.org/2000/svg"   xmlns="http://www.w3.org/2000/svg"   version="1.1"   width="512"   height="512"   viewBox="0 0 512 512">  <path     d="M256 0Q309 0 355.5 20T437 75T492 156.5T512 256T492 355.5T437 437T355.5 492T256 512T156.5 492T75 437T20 355.5T0 256T20 156.5T75 75T156.5 20T256 0zM256 474Q301 474 340.5 457T410 410T457 340.5T474 256T457 171.5T410 102T340.5 55T256 38T171.5 55T102 102T55 171.5T38 256T55 340.5T102 410T171.5 457T256 474zM344 125Q349 120 357.5 120T371 125Q376 131 376 139T371 152L300 223H351Q359 223 364.5 228.5T370 242T364.5 256T351 262H275V298H351Q359 298 364.5 304T370 318T364.5 331.5T351 337H275V395Q275 403 269.5 408.5T256 414T242.5 408.5T237 395V337H161Q153 337 147.5 331.5T142 318T147.5 304T161 298H237V262H161Q153 262 147.5 256T142 242T147.5 228.5T161 223H212L141 152Q136 147 136 139T141 125Q147 120 155 120T168 125L256 213z"     id="org-money" /></svg>
